X:49
T:Civic Holiday Breakdo
R:reel
C:Bruce Osborne - June 2002
Z:abc by bosborne@kos.net
M:2/4
L:1/8
K:Cmaj
c/d/|e/g/e/d/ c/e/c/A/|G/A/G/F/ E/G/F/E/|D/C/D/E/ F/A/G/F/|E/D/E/F/ G/B/c/d/|\
e/g/e/d/ c/e/c/A/|G/A/G/F/ E/G/F/E/|D/C/D/E/ F/A/G/F/|E/C/D/B,/ C:|\
K:GMajor
|:B,/C/|D/G/B/G/ D/G/B/G/|c/e/g/e/ c/e/g/e/|d/f/a/f/ d/f/a/f/|g/e/d/B/ G/D/B,/C/|\
D/G/B/G/ D/G/B/G/|c/e/g/e/ c/e/g/e/|d/f/a/f/ d/f/a/f/|g/e/d/B/ G:|
